X: 32953
T: President Lincoln's
R: hornpipe
M: 4/4
K: Gmajor
|:D2|G2 B>G D>GB>G|F>GA>F G>DB>d|c>ed>B c>BA>G|F>A (3dcB c>AF>D|
G>DB>G D>GB>G|F>GA>F G2 (3Bcd|c2 (3edc B2 (3AGF|G2 G2 G2:|
|:(3ABc|d2 (3Bcd g2 (3fed|F2 (3GAB c2 (3DEF|G,>B,D>G E>c (3BAG|F2 (3AGF D>cB>A|
d>GB>d g>f (3fed|e>Ac>e a>g (3gfe|B>dG>B A>cF>A|(3GGG (3AGF G2:|

